X:1
T:Abendlied
T:Moritz Vogel
T:Hoffmann von Fallersleben
T:Abendlied
T:CPDL - Creative Commons Attribution Non Commercial 3.0
C:Moritz Vogel
Z:Hoffmann von Fallersleben
Z:CPDL - Creative Commons Attribution Non Commercial 3.0
%%score [ ( 1 2 ) ( 3 4 ) ]
L:1/8
Q:1/4=90
M:6/8
K:Ab
V:1 treble nm="Sopran" snm="\n"
V:2 treble 
V:3 treble nm="Alt"
V:4 treble 
V:1
"^Sanft bewegt"!p! c2!<(! c d2!<)! B |!>(! e3!>)! c3 | A2"^cresc." A ABc |!>(! d6!>)! | %4
w: 1.~A- bend wird es|wie- der:|ü- ber Wald * und|Feld|
w: 2.~Nur der Bach er-|gie- ßet|sich am Fel- * sen|dort,|
w: 3.~Und kein A- bend|brin- get|Frie- den ihm _ und|Ruh,|
w: 4.~So in dei- nem|Stre- ben|bist, mein Herz, _ auch|du,|
 d2!<(! d c2!<)! G |!>(! A3!>)! B3 |!<(! c2 c d2 B!<)! | e6 | e2"^cresc." e a2 g | %9
w: säu- selt Frie- de|nie- der,|und es ruht die|Welt,|säu- selt Frie- den|
w: und er braust und|flie- ßet|im- mer, im- mer|fort,|und er braust und|
w: kei- ne Glo- cke|klin- get|ihm ein Rast- lied|zu,|kei- ne Glo- cke|
w: Gott nur kann dir|ge- ben|wah- re A- bend-|ruh',|Gott nur kann dir|
 (g2 f)"^dim." (e2 d) |!p! c2 d!<(! e3-!<)! | e3!>(! e3!>)! |!pp! !fermata!e6 |] %13
w: nie- * der, _|und es ruht|_ die|Welt.|
w: flie- * ßet _|im- mer, im-|* mer|fort.|
w: klin- * get _|ihm ein Rast-|* lied|zu.|
w: ge- * ben _|wah- re A-|* bend-|ruh'.|
V:2
 A2 A G2 G | A3 A3 | A2 G F2 =A | B6 | B2 A G2 G | F3 A3 | A2 A B2 G | (A3 d3) | c2 B A2 c | %9
 (e2 d) (c2 B) | A2 B c3- | (c2 A) GBd | c6 |] %13
V:3
!p! E2!<(! E E2!<)! E |!>(! E3!>)! E3 | F2"^cresc." E D2 E | F3 B2 A | (G2!<(! F =E2)!<)! E | %5
w: |||* säu- selt|Frie- * * de|
!>(! F3!>)! F3 |!<(! E2 A G2 E!<)! | (E3 G3) | A2"^cresc." G F2 A | A3"^dim." (_G2 F) | %10
w: |||||
!p!!<(! (E3 A2)!<)! B | c3!>(! B3!>)! |!pp! !fermata!A6 |] %13
w: und _ es|ruht *||
V:4
 A,2 A, B,2 D | C3 A,3 | F2 E D2 C | B,6 | B,2 B, C2 C | F3 D3 | E2 E E2 D | (C3 B,3) | %8
w: ||||säu- selt Frie- de||||
 A,2 A, F2 E | D3 (=A,2 B,) | E3 E3 | E3 E3 | A,6 |] %13
w: ||und es|ruht *||

